svgs/thin/cart-flatbed-suitcase.svg

<svg xmlns="http://www.w3.org/2000/svg" viewBox="0 0 640 512"><!-- Font Awesome Pro 6.0.0-alpha2 by @fontawesome - https://fontawesome.com License - https://fontawesome.com/license (Commercial License) --><path d="M632 416H128V72C128 29.594 101.688 0 64 0H8C3.594 0 0 3.594 0 8S3.594 16 8 16H64C97.156 16 112 44.125 112 72V424C112 428.406 115.594 432 120 432H172.461C164.797 440.508 160 451.648 160 464C160 490.508 181.492 512 208 512S256 490.508 256 464C256 451.648 251.203 440.508 243.543 432H460.461C452.797 440.508 448 451.648 448 464C448 490.508 469.492 512 496 512S544 490.508 544 464C544 451.648 539.203 440.508 531.543 432H632C636.406 432 640 428.406 640 424S636.406 416 632 416ZM208 496C190.355 496 176 481.645 176 464S190.355 432 208 432S240 446.355 240 464S225.645 496 208 496ZM496 496C478.355 496 464 481.645 464 464S478.355 432 496 432S528 446.355 528 464S513.645 496 496 496ZM240 352H528C554.508 352 576 330.508 576 304V176C576 149.492 554.508 128 528 128H480V72C480 49.938 462.062 32 440 32H328C305.938 32 288 49.938 288 72V128H240C213.492 128 192 149.492 192 176V304C192 330.508 213.492 352 240 352ZM496 144H528C545.645 144 560 158.355 560 176V304C560 321.645 545.645 336 528 336H496V144ZM304 72C304 58.781 314.781 48 328 48H440C453.219 48 464 58.781 464 72V128H304V72ZM288 144H480V336H288V144ZM208 176C208 158.355 222.355 144 240 144H272V336H240C222.355 336 208 321.645 208 304V176Z"/></svg>

<svg xmlns="http://www.w3.org/2000/svg" viewBox="0 0 640 512"><!--! Font Awesome Pro 6.3.0 by @fontawesome - https://fontawesome.com License - https://fontawesome.com/license (Commercial License) Copyright 2023 Fonticons, Inc. --><path d="M632 416H128V72C128 29.59 101.7 0 64 0H8C3.594 0 0 3.594 0 8S3.594 16 8 16H64c33.16 0 48 28.12 48 56v352c0 4.406 3.594 8 8 8h52.46C164.8 440.5 160 451.6 160 464C160 490.5 181.5 512 208 512S256 490.5 256 464c0-12.35-4.797-23.49-12.46-32h216.9c-7.664 8.508-12.41 19.65-12.41 32c0 26.51 21.48 48 47.99 48s48.01-21.49 48.01-48c0-12.35-4.852-23.49-12.51-32H632c4.406 0 8-3.596 8-8.002S636.4 416 632 416zM208 496c-17.64 0-32-14.36-32-32s14.36-32 32-32s32 14.36 32 32S225.6 496 208 496zM496 496c-17.64 0-32-14.36-32-32s14.36-32 32-32s32 14.36 32 32S513.6 496 496 496zM240 352h288c26.51 0 48-21.49 48-48v-128C576 149.5 554.5 128 528 128H480V72C480 49.94 462.1 32 440 32h-112C305.9 32 288 49.94 288 72V128H240C213.5 128 192 149.5 192 176v128C192 330.5 213.5 352 240 352zM496 144h32c17.64 0 32 14.36 32 32v128c0 17.64-14.36 32-32 32h-32V144zM304 72c0-13.22 10.78-24 24-24h112c13.22 0 24 10.78 24 24V128h-160V72zM288 144h192v192H288V144zM208 176c0-17.64 14.36-32 32-32h32v192h-32c-17.64 0-32-14.36-32-32V176z"/></svg>
